X: 7
T:7. 's Bachmuehlerl
K: Eb
M:3/4
L:1/8
N:Written with second voice, 2012 Mar 30
|: ED CD EF | \
M:4/4
L:1/4
EG G2 | \
M:3/4
L:1/8
D2 F=E FD | \
M:4/4
L:1/4
EE G2 | \
M:3/4
L:1/8
ED CD EF | \
M:4/4
L:1/4
EG G2 |
% End 1st line part A, 's Bachmuehlerl
M:3/4
L:1/8
D2 FE FD |1 E2 z2 z2 :|2 E2 z2 GA |: D2 DDDD | D2 z2 DA | G2 EEEE | E2 z2 GA |
% End 2nd line part A, 's Bachmuehlerl
M:4/4
L:1/4
DD D2 | EE E2 |1 \
M:3/4
L:1/8
D2 FE DF | E2 z2 GA :|2 \
M:3/4
L:1/8
AG ^FG AB | G2 z2 z2 ||
% End A part, 's Bachmuehlerl
K:Ab
M:3/4
L:1/8
|: AG FG AB | \
M:4/4
L:1/4
Ac c2 | \
M:3/4
L:1/8
G2 B=A BG | \
M:4/4
L:1/4
AF E2 | \
M:3/4
L:1/8
AG FG AB | \
M:4/4
L:1/4
Ac c2 |
% Following is entire second line, part B, of 's Bachmuehlerl:
M:3/4
L:1/8
G2 B=A BG |1 A2 z2 z2 :|2 A2 z2 EF |: E2 GGGG | G2 z2 EF | E2 AAAA | A2 z2 EF |
%  ...and now the third and last line:
M:4/4
L:1/4
EG G2 | EA A2 |1 \
M:3/4
L:1/8
G2 BA GB | A2 z2 EF :|2 \
M:3/4
L:1/8
dc =Bc _BG | A2 z2 z2 |]
N:Written with second voice, 2012 Mar 30

